X: 1
T: Head Light, The
M: 4/4
L: 1/8
R: reel
K: Dmaj
|:FE|DA,A,D FDDF | AddB A2 FA | GBEG FADF | EFGE {E}DCB,A, |
DA,A,D FDDF | AddB A2 FA | GBEG FADF | EDCE D2:|
|: fg|afdf geBe | fdBd e2 dc | dDEF GABc | defg e2 fg |
(3agf ge fdec | dABG AFGE | FDA,D EDFD | EDCE D2 :|
